public/logo_qidi.svg

<svg width="56" height="56" viewBox="0 0 56 56"
  xmlns="http://www.w3.org/2000/svg">
  <defs>
    <linearGradient id="id0" gradientUnits="userSpaceOnUse" x1="16307.02" y1="10169.99" x2="16560.25" y2="11711.59">
      <stop offset="0" style="stop-opacity:1; stop-color:#008FD7" id="stop1" />
      <stop offset="1" style="stop-opacity:1; stop-color:#2F318B" id="stop2" />
    </linearGradient>
    <linearGradient id="id1" gradientUnits="userSpaceOnUse" href="#id0" x1="16056.93" y1="10898.57" x2="17174.58" y2="11411.16" gradientTransform="matrix(0.01221673,0,0,0.01221673,-169.22172,-101.6233)" />
    <linearGradient id="id2" gradientUnits="userSpaceOnUse" href="#id0" x1="17110.82" y1="11707.93" x2="15537.24" y2="9414.6396" gradientTransform="matrix(0.01221673,0,0,0.01221673,-169.22172,-101.6233)" />
    <linearGradient id="id3" gradientUnits="userSpaceOnUse" href="#id0" x1="17234.91" y1="11919.81" x2="15842.57" y2="10475.48" gradientTransform="matrix(0.01221673,0,0,0.01221673,-169.22172,-101.6233)" />
    <linearGradient id="id4" gradientUnits="userSpaceOnUse" href="#id0" x1="14530.5" y1="11831.54" x2="17721.949" y2="11410.16" gradientTransform="matrix(0.01221673,0,0,0.01221673,-169.22172,-101.6233)" />
    <linearGradient id="id5" gradientUnits="userSpaceOnUse" href="#id0" x1="16332.07" y1="9489.7598" x2="16632.949" y2="10669.65" gradientTransform="matrix(0.01221673,0,0,0.01221673,-169.22172,-101.6233)" />
    <linearGradient id="id6" gradientUnits="userSpaceOnUse" href="#id0" x1="16709.061" y1="11779.85" x2="15843.02" y2="10092.21" gradientTransform="matrix(0.01221673,0,0,0.01221673,-169.22172,-101.6233)" />
    <linearGradient id="id7" gradientUnits="userSpaceOnUse" href="#id0" x1="16307.02" y1="10169.99" x2="16560.25" y2="11711.59" gradientTransform="matrix(0.01221673,0,0,0.01221673,-169.22172,-101.6233)" />
  </defs>
  <g>
    <path fill="url(#id2)" d="M 9.5743391,33.862361 C 12.954954,40.829199 20.920753,44.940007 28.852346,44.406258 25.738545,43.225633 22.703541,41.325687 20.207785,38.821256 18.717221,37.325439 17.551989,35.747526 16.716364,34.165825 14.973891,32.949894 13.458039,31.424146 12.294273,29.622788 10.120305,26.257445 9.5635881,22.533051 10.409597,19.155368 7.6318781,23.404471 7.1258611,28.81624 9.5743391,33.862361 Z m 23.4817849,9.808083 c 0.121801,-0.03518 0.243358,-0.07196 0.36467,-0.109462 l -0.917111,-0.175676 c 0.183496,0.09749 0.367724,0.192536 0.552441,0.285138 z m 4.277201,-1.823225 c 0.729095,-0.427341 1.412255,-0.899152 2.04838,-1.409078 -2.953029,-1.264799 -5.798429,-2.903185 -8.141965,-4.745469 -0.204141,0.118137 -0.413781,0.230652 -0.62965,0.336816 l 0.351964,0.222222 6.810341,4.688172 z m 2.978928,-2.213917 C 45.101457,35.166498 46.631726,28.319874 43.584139,22.039373 41.303397,17.339106 36.934571,13.937967 31.899322,12.387297 16.965952,7.7876967 6.2950011,21.382601 15.561516,31.582841 c -2.917234,-4.944845 -1.099262,-11.106722 4.968302,-13.21533 5.542732,-1.92609 12.014303,0.582127 14.450686,5.603205 1.921815,3.960543 0.759637,8.302493 -2.537171,10.905634 1.075928,0.848208 2.275245,1.680534 3.591231,2.481341 1.385011,0.842711 2.820722,1.602836 4.277689,2.275611 z" />
    <path fill="url(#id4)" d="M 9.5743391,33.862361 C 12.954954,40.829076 20.920631,44.939886 28.852224,44.406258 25.738422,43.225633 22.703541,41.325687 20.207785,38.821256 18.717221,37.325439 17.552111,35.747404 16.716364,34.165703 14.973891,32.949894 13.458039,31.424146 12.294273,29.62291 10.120305,26.257445 9.5637101,22.533173 10.409597,19.155246 7.6318781,23.404348 7.1257391,28.816362 9.5743391,33.862361 Z m 23.4817849,9.808083 c 0.121801,-0.03518 0.243358,-0.07196 0.364792,-0.109462 l -0.917233,-0.175676 c 0.183496,0.09749 0.367724,0.192536 0.552441,0.285138 z m 4.277934,-1.824569 c 0.728606,-0.427219 1.411888,-0.898174 2.047525,-1.407734 -1.665019,-0.713091 -3.294976,-1.545173 -4.820968,-2.465704 -0.273166,0.06756 -0.55012,0.129009 -0.830494,0.18484 l 4.042274,2.782605 z m 2.978806,-2.212328 c 3.76361,-3.510357 5.513902,-8.490875 4.611574,-13.511219 0.38898,4.990902 -3.195898,9.403586 -8.697949,11.3513 1.32576,0.796775 2.696355,1.518052 4.086375,2.159919 z" />
    <path fill="url(#id5)" d="M 42.96133,20.875607 C 40.55952,16.777503 36.508818,13.807004 31.899322,12.387297 17.130389,7.8382737 6.5334721,21.085001 15.265749,31.244316 c -0.751818,-1.247451 -1.248184,-2.60754 -1.42948,-4.042518 -0.8421,-6.668138 5.425696,-12.420387 13.996468,-12.845529 6.352824,-0.315192 12.189736,2.385317 15.128593,6.519338 z" />
    <path fill="url(#id3)" d="M 48,43.108963 C 42.569906,44.277128 34.917099,42.321473 29.189406,37.971582 22.442836,32.84825 20.827295,26.271616 25.354328,22.96479 c -1.529291,3.623362 1.347628,9.060419 7.808693,13.733442 4.561117,3.298763 9.969221,5.537357 14.836979,6.410731 z" />
    <path fill="url(#id1)" d="M 48,43.108963 C 37.249396,43.461783 19.367762,31.422436 25.354328,22.96479 c -1.529291,3.623362 1.347628,9.060419 7.808693,13.733442 4.561117,3.298763 9.969221,5.537357 14.836979,6.410731 z" />
    <path fill="url(#id6)" d="m 38.940436,44.318176 c -5.693364,0.998962 -13.092918,-1.512065 -18.222114,-6.580422 -6.346471,-6.270972 -6.81706,-14.084429 -1.051494,-17.448306 2.305908,-1.345429 5.261381,-1.774848 8.383245,-1.405536 -0.911368,0.244946 -1.765685,0.590924 -2.542791,1.044409 -5.765444,3.363878 -5.150087,11.320637 1.374871,17.768018 3.436812,3.395886 7.828728,5.696053 12.058283,6.621837 z" />
    <path fill="url(#id7)" d="M 38.940436,44.318176 C 22.528842,43.850275 10.652466,21.946037 28.050073,18.883912 c -0.911368,0.244946 -1.765685,0.590924 -2.542791,1.044409 -5.765444,3.363878 -5.150087,11.320637 1.374871,17.768018 3.436812,3.395886 7.828728,5.696053 12.058283,6.621837 z" />
  </g>
</svg>

<svg xmlns="http://www.w3.org/2000/svg" width="56" height="56" viewBox="0 0 56 56">
  <defs>
    <linearGradient id="a" x1="16307.02" x2="16560.25" y1="10169.99" y2="11711.59" gradientUnits="userSpaceOnUse">
      <stop offset="0" style="stop-opacity:1;stop-color:#008fd7"/>
      <stop offset="1" style="stop-opacity:1;stop-color:#2f318b"/>
    </linearGradient>
    <linearGradient id="f" x1="16056.93" x2="17174.58" y1="10898.57" y2="11411.16" gradientTransform="translate(-169.222 -101.623)scale(.01222)" gradientUnits="userSpaceOnUse" href="#a"/>
    <linearGradient id="b" x1="17110.82" x2="15537.24" y1="11707.93" y2="9414.64" gradientTransform="translate(-169.222 -101.623)scale(.01222)" gradientUnits="userSpaceOnUse" href="#a"/>
    <linearGradient id="e" x1="17234.91" x2="15842.57" y1="11919.81" y2="10475.48" gradientTransform="translate(-169.222 -101.623)scale(.01222)" gradientUnits="userSpaceOnUse" href="#a"/>
    <linearGradient id="c" x1="14530.5" x2="17721.949" y1="11831.54" y2="11410.16" gradientTransform="translate(-169.222 -101.623)scale(.01222)" gradientUnits="userSpaceOnUse" href="#a"/>
    <linearGradient id="d" x1="16332.07" x2="16632.949" y1="9489.76" y2="10669.65" gradientTransform="translate(-169.222 -101.623)scale(.01222)" gradientUnits="userSpaceOnUse" href="#a"/>
    <linearGradient id="g" x1="16709.061" x2="15843.02" y1="11779.85" y2="10092.21" gradientTransform="translate(-169.222 -101.623)scale(.01222)" gradientUnits="userSpaceOnUse" href="#a"/>
    <linearGradient id="h" x1="16307.02" x2="16560.25" y1="10169.99" y2="11711.59" gradientTransform="translate(-169.222 -101.623)scale(.01222)" gradientUnits="userSpaceOnUse" href="#a"/>
  </defs>
  <path fill="url(#b)" d="M9.574 33.862c3.381 6.967 11.347 11.078 19.278 10.544a24.7 24.7 0 0 1-8.644-5.585c-1.49-1.496-2.656-3.073-3.492-4.655-1.742-1.216-3.258-2.742-4.422-4.543-2.174-3.366-2.73-7.09-1.884-10.468-2.778 4.25-3.284 9.661-.836 14.707m23.482 9.808q.183-.053.365-.109l-.917-.176q.275.147.552.285m4.277-1.823q1.095-.642 2.049-1.409c-2.953-1.265-5.799-2.903-8.142-4.745q-.306.177-.63.336l.352.223 6.81 4.688zm2.98-2.214c4.788-4.467 6.319-11.313 3.271-17.594-2.28-4.7-6.65-8.101-11.685-9.652-14.933-4.6-25.604 8.996-16.337 19.196-2.918-4.945-1.1-11.107 4.968-13.215 5.543-1.927 12.014.582 14.45 5.603 1.922 3.96.76 8.302-2.537 10.905a36 36 0 0 0 3.592 2.482 43 43 0 0 0 4.277 2.275"/>
  <path fill="url(#c)" d="M9.574 33.862c3.381 6.967 11.347 11.078 19.278 10.544a24.7 24.7 0 0 1-8.644-5.585c-1.49-1.496-2.656-3.074-3.492-4.655-1.742-1.216-3.258-2.742-4.422-4.543-2.174-3.366-2.73-7.09-1.884-10.468-2.778 4.25-3.284 9.661-.836 14.707m23.482 9.808q.183-.053.365-.109l-.917-.176q.275.147.552.285m4.278-1.824a17 17 0 0 0 2.048-1.408 39.5 39.5 0 0 1-4.821-2.466q-.41.102-.83.185l4.041 2.783zm2.979-2.212c3.763-3.51 5.514-8.491 4.611-13.512.39 4.991-3.195 9.404-8.698 11.352a43 43 0 0 0 4.087 2.16"/>
  <path fill="url(#d)" d="M42.961 20.876c-2.401-4.098-6.452-7.069-11.062-8.489C17.13 7.838 6.533 21.085 15.266 31.244c-.752-1.247-1.248-2.607-1.43-4.042-.842-6.668 5.426-12.42 13.997-12.846 6.353-.315 12.19 2.386 15.128 6.52"/>
  <path fill="url(#e)" d="M48 43.109c-5.43 1.168-13.083-.788-18.81-5.137-6.747-5.124-8.363-11.7-3.836-15.007-1.529 3.623 1.348 9.06 7.809 13.733 4.561 3.299 9.97 5.538 14.837 6.411"/>
  <path fill="url(#f)" d="M48 43.109c-10.75.353-28.632-11.687-22.646-20.144-1.529 3.623 1.348 9.06 7.809 13.733 4.561 3.299 9.97 5.538 14.837 6.411"/>
  <path fill="url(#g)" d="M38.94 44.318c-5.693 1-13.092-1.512-18.222-6.58-6.346-6.271-6.817-14.085-1.051-17.449 2.306-1.345 5.261-1.774 8.383-1.405-.911.245-1.766.59-2.543 1.044-5.765 3.364-5.15 11.321 1.375 17.768 3.437 3.396 7.829 5.696 12.058 6.622"/>
  <path fill="url(#h)" d="M38.94 44.318c-16.41-.468-28.288-22.372-10.89-25.434-.911.245-1.766.59-2.543 1.044-5.765 3.364-5.15 11.321 1.375 17.768 3.437 3.396 7.829 5.696 12.058 6.622"/>
</svg>
